X: 159
M: 6/8
L: 1/8
K: G
dBG Gge | dBG Gge | dcB dcB | A3- A2B/c/ |\
dBG Gge | dBG Gge | dcB cBA | G3- G2 :|
|: B/c/ |\
dBd ece | fda b2g | dBd ece | fdd' b2g |\
dBd ece | fda b2g | dBd ece | fdf g2 :|

